X: 41357
T: Turnpike, The
R: hornpipe
M: 4/4
K: Gmajor
|:(3DEF|G2 B>G A>BG>E|D>CD>E G>D (3Bcd|g2 f>d (3efg d>B|c>AA>G (3ABc B>A|
(3GAG B>G A2 G>E|D2- D>E G2 (3Bcd|g2 f>d e2 d>B|(3cBA F>A G2:|
|:(3GFE|D2 F>D A>DF>D|G2 B>G d>G (3BAG|(3ABA ^c>A e>Ac>e|d2 (3fed a>df>a|
g2 g>d (3eee d>B|(3c^cd e>f g2- g>d|g>fg>d e>gd>B|(3cBA F>A G2:|

